!!!COM: Haydn, Franz Joseph
!!!OPR: String Quartet in A Major
!!!ONM: Opus 20, No. 6
!!!OTL: Affettuoso 
!!!OMV: 3
!!!SCT: H III:36
!!!SCA: Thematisch-bibliographisches Werkevererzeichnis (A. van Hoboken)
!!!YOR: Richault Edition, volume 4
!!!EED: Frances Bennion
!!!ENC: Frances Bennion
!!!CDT: 1732/3/31/-1809/5/31/
!!!OCY: Österreich
!!!YEC: Copyright (c) 1994, 2000 Center for Computer Assisted Research in the Humanities
!!!YEM: Rights to all derivative editions reserved.
!!!YEM: Refer to licensing agreement for further details.
!!!YEN: United States of America
**kern	**kern	**kern	**kern
*k[f#c#g#]	*k[f#c#g#]	*k[f#c#g#]	*k[f#c#g#]
*A:	*A:	*A:	*A:
*clefF	*clefF	*clefC3	*clefF4
*M3/4	*M3/4	*M3/4	*M3/4
*tb16	*tb16	*tb16	*tb16
=1	=1	=1	=1
2.a	4c#	4e	4A
.	4c#	4e	4A
.	4c#	4e	4A
=2	=2	=2	=2
8g#	4d	2e	4B
8a	.	.	.
8b	4c#	.	4A
8a	.	.	.
8cc#	4r	4r	4r
8c#	.	.	.
=3	=3	=3	=3
2e	2c#	4E	4E
.	.	4E	4E
4d	4B	4E	4E
=4	=4	=4	=4
4c#	4A	4A	4AA
4r	4r	2r	4A
8ee	4c#	.	4r
16dd	.	.	.
16ee	.	.	.
=5	=5	=5	=5
4ff#	4d	2.r	2.r
4dd	4f#	.	.
4cc#	4e	.	.
=6	=6	=6	=6
4b	4d	2.r	2.r
8a	4e	.	.
8g#	.	.	.
4a	4c#	.	.
=7	=7	=7	=7
8g#	4B	4e 4B	4E
8ee	.	.	.
4bb	4gg#	4e 4B	4E
4bb	4gg#	4B 4e	4E
=8	=8	=8	=8
4bb	4gg#	4e 4B	4E
2r	2r	2r	2r
=9	=9	=9	=9
8bb	4r	4r	4r
8ee	.	.	.
4g#	4B	4e	4E
4g#	4B	4e	4E
=10	=10	=10	=10
8ccc#	4r	4r	4r
8ee	.	.	.
4a	4c#	4e	4AA
4a	4c#	4e	4AA
=11	=11	=11	=11
8g#	4r	4r	4r
8ee	.	.	.
8bb	8gg#	4e	4E
8ccc#	8aa	.	.
8ddd	8bb	4e	4E
8ccc#	8aa	.	.
=12	=12	=12	=12
4bb	4gg#	8e	8E
.	.	8a	8F#
2r	2r	8g#	8E
.	.	8f#	8D
.	.	8e	8C#
.	.	8d	8BB
=13	=13	=13	=13
2eee	4r	4c#	4AA
.	4a	4c#	2r
8ccc#	4a	4c#	.
8aa	.	.	.
=14	=14	=14	=14
8ff#	4a	4d	2.r
8dd	.	.	.
4ddd	2r	2r	.
4r	.	.	.
=15	=15	=15	=15
4ee	4r	4r	2.r
4ccc#	4aa	4e	.
4bb	4gg#	4e	.
=16	=16	=16	=16
4aa	4aa	4a	4AA
2r	2r	2r	4C#
.	.	.	4E
=17	=17	=17	=17
2.a	4c#	4e	4A
.	4c#	4e	4A
.	4c#	4e	4A
=18	=18	=18	=18
4g#	4d	2e	4B
8a	4c#	.	4A
8b	.	.	.
8cc#	4r	4r	4r
8c#	.	.	.
=19	=19	=19	=19
2e	2c#	4E	4E
.	.	4E	4E
4d	4B	4E	4E
=20	=20	=20	=20
4c#	4A	4A	4AA
2r	2r	2r	2r
=21	=21	=21	=21
4A	2.r	2.r	2.r
4c#	.	.	.
4d	.	.	.
=22	=22	=22	=22
8e	2.r	2.r	2.r
8c#	.	.	.
8d	.	.	.
8e	.	.	.
8f#	.	.	.
8g#	.	.	.
=23	=23	=23	=23
4a	2.r	4F#	4AA
4g#	.	4E	4AA
4f#	.	4D	4AA
=24	=24	=24	=24
2e	2.r	2C#	2AA
4e#	.	4A	4CC#
=25	=25	=25	=25
4f#	2.r	[2.A	2DD
4a	.	.	.
4c#	.	.	4EE
=26	=26	=26	=26
4d	2.r	2A]	2.FF#
4f#	.	.	.
4A	.	4D#	.
=27	=27	=27	=27
8G#	2.r	8E	4EE
8B	.	8G#	.
4d	.	4B	4EE
4c#	.	4A	4EE
=28	=28	=28	=28
2B	2.r	2G#	2EE
4r	.	4r	4r
=29	=29	=29	=29
2B	2.r	2G#	4r
.	.	.	4EE
4c#	.	4A	4EE
=30	=30	=30	=30
4d	2.r	4B	4EE
4G#	.	4D	2r
4A	.	4C#	.
=31	=31	=31	=31
4B	2.r	4G#	4r
4B	.	4G#	4EE
4c#	.	4A	4EE
=32	=32	=32	=32
4d	2.r	4B	4EE
2r	.	2r	2r
=33	=33	=33	=33
4A	2.r	2.r	2.r
4c#	.	.	.
4d	.	.	.
=34	=34	=34	=34
8e	2.r	2.r	2.r
8c#	.	.	.
8d	.	.	.
8e	.	.	.
8f#	.	.	.
8g#	.	.	.
=35	=35	=35	=35
4a	2.r	4F#	4AA
4g#	.	4E	4AA
4f#	.	4D	4AA
=36	=36	=36	=36
4e	2.r	4C#	4AA
8f#	.	8D	2r
8g#	.	8E	.
8a	.	8F#	.
8b	.	8G#	.
=37	=37	=37	=37
4cc#	2.r	4A	2.r
4b	.	4G#	.
4a	.	4F#	.
=38	=38	=38	=38
8g#	2.r	8E	2.EE
8a	.	8F#	.
8g#	.	8E	.
8a	.	8F#	.
8b	.	8G#	.
8cc#	.	8A	.
=39	=39	=39	=39
4dd	2.r	4B	8EE
.	.	.	8FF#
4dd	.	4B	8EE
.	.	.	8FF#
4dd	.	4B	8GG#
.	.	.	8AA
=40	=40	=40	=40
2dd	2.r	2B	4GG#
.	.	.	4EE
4cc#	.	4A	4AA
=41	=41	=41	=41
4b	2.r	4d	4DD
4a	.	4c#	4EE
4g#	.	4B	4EE
=42	=42	=42	=42
2.a	2.r	2A	2AA
.	.	4r	4r
==	==	==	==
*-	*-	*-	*-
!!!RWG1: This file contains only pitch and duration data.
!!!RWG2: Transposing instruments are not transposed.
!!!RWG3: Spines may have incompatible meters.
!!!RWG4: Durations of rests and tied notes may be interpreted.
!!!RWG: Key is interpreted using the Humdrum key tool.
!!!GTL: 6 Divertimentos ("Sun")
!!!AFT: stage1
!!!END: 1997/04/15
!!format changes:
!!content changes:
!!public access: complete
!!!KEY: 3527259761
!!!EMD: Converted from MuseData to Humdrum Dec 16, 2000, by Andreas Kornstaedt using muse2kern.
